!!!!SEGMENT: pl-kozmzk--mzk-m-31--001-020_szymanowska-maria--vingt-exercices-et-preludes-pour-le-pianoforte-preludium-f-dur.krn
!!!cenid: 18xx:456
!!!COM: Szymanowska, Maria
!!!COM-rismID: pe140138
!!!CDT: 1789/12/14-1831/07/25
!!!CNT: Polish
!!!GTL: Vingt Exercices et Préludes pour le Pianoforte
!!!OTL: Preludium F-dur
!!!OMV: 020
!!!PDT: 1819
!!!AGN: Secular; Prelude
!!!YEC: Copyright 2022 Narodowy Instytut Fryderyka Chopina (https://polishscores.org)
!!!YEM: License CC-BY-4.0 (https://creativecommons.org/licenses/by/4.0)
!!!SMS-siglum: PL-KOZmzk
!!!SMS-shelfmark: mzk/m/31
!!!SMS-shelfwork: 001-020 G
!!!SMS-variant:
!!!SMS-altvar:
!!!NIFC-rismSourceID: 1001025323
!!!NIFC-rismChildID: 1001025343
!!!NIFC-islandoraID: pl-kozmzk:6325
!!!URL-pdf-islandora: https://repozytorium.nifc.pl/islandora/object/pl-kozmzk%3A6325/datastream/PDF/view
!!!URL-scan: https://polish.musicsources.pl/pl/lokalizacje/galeria/rekopisy/462 @EN{Scan on Polish Music Sources Website} @PL{Skany w portalu Dziedzictwo Muzyki Polskiej w otwartym dostępie}
!!!IIIF:
!!!ONB-nifc:
!!!AIN: 2 empty
!!!key:
**kern	**kern	**dynam
*part2	*part1	*
*staff2	*staff1	*
*Iempty	*Iempty	*
*I"	*I"	*
*mI"[Pianoforte]	*mI"[Pianoforte]	*
*I'	*I'	*
*mI'[pf]	*mI'[pf]	*
*clefF4	*clefG2	*
*k[b-]	*k[b-]	*
*F:	*F:	*
*M6/8	*M6/8	*
=1	=1	=1
!	!LO:MO:mod=!null:null	!
!	!LO:TX:a:i:t=No&colon; 20.	!
!	!LO:TX:a:i:t=Cantabile	!
8.FL 8.FF\	8.ffL 8.f\	f
16GL 16GG\	16ggL 16g\	.
16A 16AA\	16aa 16a\	.
16B-JJ 16BB-\	16bb-JJ 16b-\	.
*	*8va	*
!	!LO:MO:mod=!LO&colon;TX&colon;a&colon;i&colon;t=segue con 8va	!
!	!LO:TX:a:t=segue con 8vaa	!
16cLL 16C\	16ccc\LL	.
16d 16D\	16ddd\	.
16e 16E\	16eee\	.
16f 16F\	16fff\	.
16g 16G\	16ggg\	.
16aJJ 16A\	16aaa\JJ	.
=2	=2	=2
8b- 8G\	16bbb-\LL	.
.	16cccc\	.
[4B- [4BB-^\	16dddd\	.
.	16aaa\	.
.	16bbb-\	.
.	16fff#X\JJ	.
8.B-]L 8.BB-\]	16ggg\LL	.
.	16ccc#X\	<
.	16ddd\	.
16GL 16GG\	16bbb-\	.
16A 16AA\	16aaa\	.
16B-JJ 16BB-\	16ggg\JJ	[[
=3	=3	=3
8cL 8C\	8fff\L	p
8c 8C\	8eee\	.
8cJ 8A 8C\	8fff\J	.
8cL 8B- 8C\	8ggg\L	.
8c 8B- 8C\	8aaa\	.
8cJ 8B- 8C\	8ggg\J	.
=4	=4	=4
*tremolo	*	*
8f 8c 8A 8F\L	4fff\	.
8f 8c 8A 8F\	.	.
8f 8c 8A 8F\	8r	.
8f 8c 8A 8F\	16bbb-\LL	.
.	16aaa\	.
8f 8c 8A 8F\	16ggg\	.
.	16fff\	.
8f 8c 8A 8F\J	16eee\	.
.	16ddd\JJ	.
!!LO:LB:g=original
=5	=5	=5
8e 8c 8B- 8F\L	8ddd\L	.
8e 8c 8B- 8F\	8ccc\	.
8e 8c 8B- 8F\	8ccc\J	.
8e 8c 8B- 8F\	8ccc\L	.
8e 8c 8B- 8F\	8ddd\	.
8e 8c 8B- 8F\J	8ccc\J	.
=6	=6	=6
8f 8c 8A 8F\L	4ccc\	.
8f 8c 8A 8F\	.	.
8f 8c 8A 8F\	8r	.
!	!	!LO:DY:t= :mod=%s
!	!	!LO:MO:mod=!LO&colon;DY&colon;ed=
!	!	!null
8f 8c 8A 8F\	16bbb-\LL	sf
!	!	!LO:MO:mod=!null:null
.	16aaa\	sf
8f 8c 8A 8F\	16ggg\	.
.	16fff\	.
8f 8c 8A 8F\J	16eee\	.
.	16ddd\JJ	.
=7	=7	=7
8e 8c 8B- 8F\L	8ddd\L	.
8e 8c 8B- 8F\	8ccc\	.
8e 8c 8B- 8F\	8ccc\J	.
8e 8c 8B- 8F\	8ccc\L	.
8e 8c 8B- 8F\	8ddd\	.
8e 8c 8B- 8F\J	8ccc\J	.
=8	=8	=8
8f 8c 8A 8F\L	4ccc\	.
8f 8c 8A 8F\	.	.
8f 8c 8A 8F\J	8r	.
!	!	!LO:DY:t= :mod=%s
!	!	!LO:MO:mod=!LO&colon;DY&colon;ed=
!	!	!null
4f 4c 4A 4F\	16bbb-\LL	sf
!	!	!LO:MO:mod=!null:null
.	16aaa\	sf
.	16ggg\	.
.	16fff\	.
8r	16eee\	.
.	16ddd\JJ	.
*Xtremolo	*	*
=9	=9	=9
8AA/	8ddd\L	.
8gL 8e 8A\	8ccc#X\	.
8gJ 8e 8A\	8ccc#\J	.
*tremolo	*	*
8g 8e 8A\L	8aa\L	.
8g 8e 8A\	8bbn\	.
!	!	!LO:MO:null:mod=.
8g 8e 8A\J	8ccc#\J	<
*Xtremolo	*	*
=10	=10	=10
!	!	!LO:MO:null:mod=<
8D\	8.ddd\L	.
8fL 8d 8A\	.	.
.	16eee\L	.
8fJ 8d 8A\	16fff\	.
.	16ggg\JJ	.
8FF/	16aaa\LL	.
.	16bbbn\	.
8dL 8A 8F\	16cccc\	.
.	16aaa\	.
8dJ 8A 8F\	16fff\	.
.	16ddd\JJ	[[
=11	=11	=11
8GG/	8ccc\L	.
8eL 8c 8G\	16fff\L	.
.	16eee\	.
8eJ 8c 8G\	16ddd\	.
.	16ccc\JJ	.
8GG/	16bbn\LL	.
.	16aa\	.
8dL 8Bn 8G\	16gg\	.
.	16ff\	.
8dJ 8B 8G\	16ee\	.
.	16dd\JJ	.
!!LO:LB:g=original
=12	=12	=12
8.CL 8.CC\	8.cc/L	f
16DL 16DD\	16dd/L	.
16E 16EE\	16ee/	.
16FJJ 16FF\	16ff/JJ	.
16GLL 16GG\	16gg/LL	.
16A 16AA\	16aa/	.
16Bn 16BBn\	16bbn/	.
16c 16C\	16ccc/	.
16d 16D\	16ddd/	.
16eJJ 16E\	16eee/JJ	.
=13	=13	=13
8f 8F\	16fff\LL	.
.	16ggg\	.
[4F [4FF^\	16aaa\	.
.	16eee\	.
.	16fff\	.
.	16ccc#X\JJ	.
(8.F]L 8.FF\]	16ddd\LL	.
!	!	!LO:MO:null:mod=<
.	16gg#X\	.
!	!	!LO:MO:null:mod=.
.	16aa\	<
16DL 16DD\)	16fff\	.
16E 16EE\	16eee\	.
16FJJ 16FF\	16ddd\JJ	[[
=14	=14	=14
8GL 8GG\	8ccc\L	.
8G 8GG\	8bbn\	.
8GJ 8E 8GG\	8ccc\J	.
*tremolo	*	*
8G 8F 8GG\L	8ddd\L	.
8G 8F 8GG\	8eee\	.
8G 8F 8GG\J	8ddd\J	.
*Xtremolo	*	*
=15	=15	=15
8G 8E 8C\	4ccc\	.
8eL 8G 8C\	.	.
8eJ 8G 8C\	8r	.
*tremolo	*	*
8e 8G 8C\L	16fff\LL	sf
.	16eee\	.
8e 8G 8C\	16ddd\	.
.	16ccc\	.
8e 8G 8C\J	16bbn\	.
.	16aa\JJ	.
=16	=16	=16
8Bn 8G 8F 8C\L	8aa/L	.
8Bn 8G 8F 8C\	8gg/	.
8Bn 8G 8F 8C\	8gg/J	.
8Bn 8G 8F 8C\	8gg/L	.
8Bn 8G 8F 8C\	8aa/	.
8Bn 8G 8F 8C\J	8gg/J	.
=17	=17	=17
8c 8G 8E 8C\L	4gg/	.
8c 8G 8E 8C\	.	.
8c 8G 8E 8C\	8r	.
8c 8G 8E 8C\	16fff\LL	sf
.	16eee\	.
8c 8G 8E 8C\	16ddd\	.
.	16ccc\	.
!	!LO:SIC:o=16bb-\:v	!
8c 8G 8E 8C\J	16bb\	.
.	16aa\JJ	.
!!LO:LB:g=original
=18	=18	=18
8Bn 8G 8F 8C\L	8aa/L	.
8Bn 8G 8F 8C\	8gg/	.
8Bn 8G 8F 8C\	8gg/J	.
8Bn 8G 8F 8C\	8gg/L	.
!	!LO:TX:t=P:problem:diminuendolike accent	!
8Bn 8G 8F 8C\	8aa-X^</	.
8Bn 8G 8F 8C\J	8gg/J	.
*Xtremolo	*	*
=19	=19	=19
8cL 8G 8E-X 8C\	4gg/	.
8c 8G 8E- 8C\	.	.
8cJ 8G 8E- 8C\	8r	.
*tremolo	*	*
!	!LO:MO:mod=!LO&colon;TX&colon;b&colon;i&colon;t=espress.	!
!	!LO:TX:b:i:t=espres	!
8c 8G 8E-\L	16aaa-X\LL	.
.	16ggg\	.
8c 8G 8E-\	16fff\	.
.	16eee-X\	.
8c 8G 8E-\J	16ddd\	.
.	16ccc\JJ	.
=20	=20	=20
8d 8c 8A-X 8F\L	4eee-X\	.
8d 8c 8A-X 8F\	.	.
8d 8c 8A-X 8F\	8ddd\	.
8d 8c 8A-X 8F\	8fff\L	.
8d 8c 8A-X 8F\	8ggg\	.
8d 8c 8A-X 8F\J	8aaa-X\J	.
=21	=21	=21
!LO:SIC:o=8e 8c 8G\L:v	!	!
8e- 8c 8G\L	4ggg\	.
!LO:SIC:o=8e 8c 8G\:v	!	!
8e- 8c 8G\	.	.
!LO:SIC:o=8e 8c 8G\J:v	!	!
8e- 8c 8G\J	8eee-X\	.
8f 8Bn 8G\L	8ddd\L	.
8f 8Bn 8G\	8eee-\	.
8f 8Bn 8G\J	8ddd\J	.
*Xtremolo	*	*
=22	=22	=22
8e-X 8c\	4ccc\	.
8e-L 8G 8C\	.	.
8e-J 8G 8C\	8r	.
*tremolo	*	*
8e- 8G 8C\L	16aaa-X\LL	f
.	16ggg\	.
8e- 8G 8C\	16fff#X\	.
.	16ggg\	.
8e- 8G 8C\J	16eee-X\	.
.	16ccc\JJ	.
=23	=23	=23
8e-X 8G 8C\L	4.gg/	.
8e-X 8G 8C\	.	.
8e-X 8G 8C\	.	.
8e-X 8G 8C\	8gg/L	p
!	!LO:TX:a:t=P:problem=diminuendolike accent	!
8e-X 8G 8C\	8aa-X^>/	.
8e-X 8G 8C\J	8gg/J	.
!!LO:LB:g=original
=24	=24	=24
8Bn 8G 8F 8D\L	4.gg/	.
8Bn 8G 8F 8D\	.	.
8Bn 8G 8F 8D\	.	.
8Bn 8G 8F 8D\	16aaa-X\LL	f
.	16ggg\	.
8Bn 8G 8F 8D\	16fff#X\	.
.	16ggg\	.
8Bn 8G 8F 8D\J	16ddd\	.
.	16bbn\JJ	.
=25	=25	=25
8Bn 8G 8F 8D\L	4.gg/	.
8Bn 8G 8F 8D\	.	.
8Bn 8G 8F 8D\	.	.
8Bn 8G 8F 8D\	8gg/L	.
8Bn 8G 8F 8D\	8aa-X^>/	.
8Bn 8G 8F 8D\J	8gg/J	.
=26	=26	=26
8c 8G 8E-X 8C\L	4.gg/	.
8c 8G 8E-X 8C\	.	.
8c 8G 8E-X 8C\J	.	.
*Xtremolo	*	*
8cL 8G 8E- 8C\	16aaa-X\LL	.
.	16ggg\	.
8c 8G 8E- 8C\	16fff#X\	.
.	16ggg\	.
8cJ 8G 8E- 8C\	16fffn\	.
.	16eee-X\JJ	.
=27	=27	=27
*tremolo	*	*
8c 8G 8E-X\L	4ddd\	.
8c 8G 8E-X\	.	.
8c 8G 8E-X\	8ccc\	.
8c 8G 8E-X\	8ccc\L	.
8c 8G 8E-X\	8ddd\	.
8c 8G 8E-X\J	8eee-X\J	.
=28	=28	=28
8d 8c 8A-X 8F\L	4eee-X\	.
8d 8c 8A-X 8F\	.	.
8d 8c 8A-X 8F\	8ddd\	.
8d 8c 8A-X 8F\	16bbb-\LL	.
.	16aaa\	.
8d 8c 8A-X 8F\	16aaa-X\	.
.	16ggg\	.
8d 8c 8A-X 8F\J	16ggg-X\	.
.	16fff\JJ	.
=29	=29	=29
8e 8d-X 8B- 8G\L	4.eeen\	.
8e 8d-X 8B- 8G\	.	.
8e 8d-X 8B- 8G\	.	.
8e 8d-X 8B- 8G\	8eee\L	.
8e 8d-X 8B- 8G\	8fff\	.
8e 8d-X 8B- 8G\J	8ggg\J	.
!!LO:LB:g=original
=30	=30	=30
8f 8c 8A-X\L	4ggg\	.
8f 8c 8A-X\	.	.
8f 8c 8A-X\	8fff\	.
8f 8c 8A-X\	16dddd-X\LL	.
.	16cccc\	.
8f 8c 8A-X\	16bbbn\	.
.	16cccc\	.
8f 8c 8A-X\J	16aaa-X\	.
.	16ggg\JJ	.
=31	=31	=31
8f 8c 8A-X\L	4.fff\	.
8f 8c 8A-X\	.	.
8f 8c 8A-X\	.	.
8f 8c 8A-X\	16ddd-X\LL	.
.	16ccc\	.
8f 8c 8A-X\	16bbn\	.
.	16ccc\	.
8f 8c 8A-X\J	16aa-X\	.
.	16gg\JJ	.
=32	=32	=32
8f 8A-X\	2.ff/	.
(8A-L 8AA-X`\	.	.
8An 8AAn`\	.	.
8B- 8BB-`\	.	.
8Bn 8BBn`\	.	.
8cJ 8C`\)	.	.
*	*X8va	*
=33	=33	=33
8d-XL 8D-X\	(8f`\L	<
8d-X 8D-X\	8g 8f`\	.
8d-X 8D-X\	8a-X 8f`\	.
8d-X 8D-X\	8an 8f`\	.
8d-X 8D-X\	8b- 8f`\	.
8d-XJ 8D-X\	8bnJ 8f`\	[[
*Xtremolo	*	*
=34	=34	=34
8c 8C\)	4.cc 4.en\)	.
8GL 8E 8C\	.	.
8GJ 8E 8C\	.	.
*tremolo	*	*
8G 8E 8C\L	16ddd-XLL 16dd-X\	.
*	*8va	*
!	!LO:MO:mod=!null:null	!
!	!LO:TX:a:t=8va	!
.	16ccc\	.
8G 8E 8C\	16bbn\	.
.	16ccc\	.
8G 8E 8C\J	16gg\	.
.	16ee\JJ	.
=35	=35	=35
8A-X 8F 8C\L	4.cc/	.
8A-X 8F 8C\	.	.
8A-X 8F 8C\	.	.
8A-X 8F 8C\	16ddd-X^\LL	.
.	16ccc\	.
8A-X 8F 8C\	16bbn\	.
.	16ccc\	.
8A-X 8F 8C\J	16aa-X\	.
.	16ff\JJ	.
!!LO:LB:g=original
*Xtremolo	*	*
=36	=36	=36
8G 8E 8C\	4.cc/	.
(8D-XL 8DD-X^/	.	.
8CJ 8CC/)	.	.
8CL 8CC/	16ddd-X\LL	.
.	16ccc\	.
8C 8CC/	16bbn\	.
.	16ccc\	.
8CJ 8CC/	16gg\	.
.	16ee\JJ	.
=37	=37	=37
8CL 8CC/	4.cc/	.
(8D-X 8DD-X^/	.	.
8CJ 8CC/)	.	.
8CL 8CC/	16ddd-X\LL	.
.	16ccc\	.
8C 8CC/	16bbn\	.
.	16ccc\	.
8CJ 8CC/	16aa-X\	.
.	16ff\JJ	.
=38	=38	=38
2.C 2.CC/	8.cc/L	.
.	16cc#X/L	.
.	16dd/	.
.	16dd#X/JJ	.
.	16ee/LL	.
.	16ff/	.
.	16ff#X/	.
.	16gg/	.
.	16gg#X/	.
.	16aa/JJ	.
=39	=39	=39
[8CL [8CC/	16bb-\LL	<
.	16bbn\	.
16C]L 16CC/]	16ccc\	.
16C#X 16CC#X/	16ccc#X\	.
16D 16DD/	16ddd\	.
16D#XJJ 16DD#X/	16ddd#X\JJ	.
16ELL 16EE/	16eee\LL	.
16F 16FF/	16fff\	.
16F#X 16FF#X/	16fff#X\	.
16G 16GG/	16ggg\	.
16G#X 16GG#X/	16ggg#X\	.
16AJJ 16AA/	16aaa\JJ	[
!!LO:PB:g=original
=40	=40	=40
!	!LO:TX:a:i:t=con 8va	!
8B- 8BB-\	16bbb-\LL	.
.	16cccc\	.
[4B- [4BB-^\	16dddd\	.
.	16aaa\	.
.	16bbb-\	.
.	16fff#X\JJ	.
8.B-]L 8.BB-\]	16ggg\LL	<
.	16ccc#X\	.
.	16ddd\	.
16GL 16GG\	16bbb-\	.
16A 16AA\	16aaa\	.
16B-JJ 16BB-\	16ggg\JJ	[[
=41	=41	=41
!	!LO:MO:mod=!LO&colon;TX&colon;b&colon;i&colon;t=dol.	!
!	!LO:TX:b:i:t=dol	!
8cL 8C\	8fff\L	.
8c 8C\	8eee\	.
8cJ 8C\	8fff\J	.
8cL 8B- 8C\	8ggg\L	.
8c 8B- 8C\	8aaa\	.
8cJ 8B- 8C\	8ggg\J	.
=42	=42	=42
*tremolo	*	*
8f 8c 8A 8F\L	4fff\	.
8f 8c 8A 8F\	.	.
8f 8c 8A 8F\	8r	.
8f 8c 8A 8F\	16bbb-\LL	.
.	16aaa\	.
8f 8c 8A 8F\	16ggg\	.
.	16fff\	.
8f 8c 8A 8F\J	16eee\	.
.	16ddd\JJ	.
=43	=43	=43
8e 8c 8B- 8F\L	8ddd\L	.
8e 8c 8B- 8F\	8ccc\	.
8e 8c 8B- 8F\	8ccc\J	.
8e 8c 8B- 8F\	8ccc\L	.
8e 8c 8B- 8F\	8ddd\	.
8e 8c 8B- 8F\J	8ccc\J	.
=44	=44	=44
8f 8c 8A 8F\L	4ccc\	.
8f 8c 8A 8F\	.	.
8f 8c 8A 8F\	8r	.
8f 8c 8A 8F\	16bbb-\LL	.
.	16aaa\	.
8f 8c 8A 8F\	16ggg\	.
.	16fff\	.
8f 8c 8A 8F\J	16eee\	.
.	16ddd\JJ	.
=45	=45	=45
8e 8c 8B- 8F\L	8ddd\L	.
8e 8c 8B- 8F\	8ccc\	.
8e 8c 8B- 8F\	8ccc\J	.
8e 8c 8B- 8F\	8ccc\L	.
8e 8c 8B- 8F\	8ddd\	.
8e 8c 8B- 8F\J	[8ccc\J	.
*Xtremolo	*	*
=46	=46	=46
8fL 8c 8A 8F\	4.ccc\_	.
8f 8c 8A 8F\	.	.
8e-XJ 8c 8A 8F\	.	.
*tremolo	*	*
8d 8c 8A 8F#X\L	8ccc\L]	.
8d 8c 8A 8F#X\	8ddd\	.
8d 8c 8A 8F#X\J	[8ccc\J	.
!!LO:LB:g=original
=47	=47	=47
!	!LO:MO:mod=!null:null	!
!	!LO:TX:a:i:t=con 8vaa	!
8d 8c 8G\L	8ccc\L]	.
8d 8c 8G\	8ddd^\	.
8d 8c 8G\J	8ccc\J	.
8d 8Bn 8G\L	8bbn\L	.
8d 8Bn 8G\	8ggg\	.
8d 8Bn 8G\J	8ggg\J	.
=48	=48	=48
8e 8c\L	8ggg\L	.
8e 8c\	8ccc\	.
8e 8c\J	8bb-X\J	.
8e-X 8c 8F\L	8aa\L	.
8e-X 8c 8F\	8fff\	.
8e-X 8c 8F\J	8fff\J	.
=49	=49	=49
8d 8B-\L	8fff\L	.
8d 8B-\	8bb-\	.
8d 8B-\J	8aa\J	.
8en 8c 8B-\L	8gg\L	.
8en 8c 8B-\	8ddd^\	.
8en 8c 8B-\J	8ccc\J	.
=50	=50	=50
8f 8c 8A\L	8aa\L	.
8f 8c 8A\	8ddd^\	.
8f 8c 8A\J	8ccc\J	.
8e 8B- 8G 8C#X\L	8bbb-\L	.
8e 8B- 8G 8C#X\	8aaa\	.
8e 8B- 8G 8C#X\J	8ggg\J	.
=51	=51	=51
8d 8A 8F 8D\L	4aaa\	.
8d 8A 8F 8D\	.	.
8d 8A 8F 8D\J	8fff\	.
*Xtremolo	*	*
8BB-\L	8.ggg^\L	.
8d 8B-\	.	.
.	16fff\L	.
8dJ 8B-\	16eee\	.
.	16ddd\JJ	.
=52	=52	=52
8C\L	4ddd\	.
8c 8A\	.	.
8cJ 8A\	8ccc\	.
8C\L	8.ddd^\L	.
8c 8B-\	.	.
.	16ccc\L	.
8cJ 8B-\	16bb-\	.
.	16gg\JJ	.
=53	=53	=53
*tremolo	*	*
!	!	!LO:MO:null:mod=<
8c 8A 8F\L	4.ff/	.
!	!	!LO:MO:null:mod=.
8c 8A 8F\	.	<
8c 8A 8F\J	.	.
8e-X 8c 8F\L	8ff/L	.
8e-X 8c 8F\	8gg/	.
8e-X 8c 8F\J	8aa/J	.
=54	=54	=54
8d 8B- 8F\L	8bb-\L	.
8d 8B- 8F\	8aa\	.
8d 8B- 8F\J	8bb-\J	.
8en 8c 8G 8F\L	8ddd\L	.
8en 8c 8G 8F\	8ccc\	.
8en 8c 8G 8F\J	8bb-\J	[
!!LO:LB:g=original
=55	=55	=55
!	!LO:MO:mod=!null:null	!
!	!LO:TX:a:i:t=con 8va	!
8f 8c 8A 8F\L	4aa/	.
8f 8c 8A 8F\	.	.
8f 8c 8A 8F\J	8r	.
8e-X 8c 8F\L	8ff/L	.
8e-X 8c 8F\	8gg/	.
8e-X 8c 8F\J	8aa/J	.
=56	=56	=56
8d 8B- 8F\L	8bb-\L	.
8d 8B- 8F\	8aa\	.
8d 8B- 8F\J	8bb-\J	.
8en 8c 8B- 8G 8F\L	8ccc\L	.
8en 8c 8B- 8G 8F\	8ddd\	.
8en 8c 8B- 8G 8F\J	8eee\J	.
=57	=57	=57
8f 8c 8A 8F\L	4.fff\	.
8f 8c 8A 8F\	.	.
8f 8c 8A 8F\J	.	.
8f 8c 8A 8E-X\L	4ggg\	.
8f 8c 8A 8E-X\	.	.
8f 8c 8A 8E-X\J	8fff\	.
=58	=58	=58
8f 8B- 8F 8D\L	4ggg\	.
8f 8B- 8F 8D\	.	.
8f 8B- 8F 8D\J	8fff\	.
8e-X 8A 8F 8C\L	8eeee-X\L	.
8e-X 8A 8F 8C\	8dddd\	.
8e-X 8A 8F 8C\J	8cccc\J	.
=59	=59	=59
8d 8B- 8F 8BB-\L	4dddd\	.
8d 8B- 8F 8BB-\	.	.
8d 8B- 8F 8BB-\J	8bbb-\	.
8c 8B- 8G 8E\L	8.cccc^\L	.
8c 8B- 8G 8E\	.	.
.	16bbb-\L	.
8c 8B- 8G 8E\J	16aaa\	.
.	16ggg\JJ	.
=60	=60	=60
8dL 8B- 8F\	4ggg\	.
8d 8B- 8F\	.	.
8dJ 8B- 8F\	8fff\	.
8e-XL 8c 8A 8F\	8.ggg^\L	.
8e-X 8c 8A 8F\	.	.
.	16fff\L	.
8e-XJ 8c 8A 8F\	16eee-X\	.
.	16ccc\JJ	.
=61	=61	=61
8d 8B-\	8bb-\	.
16BB-LL 16BBB-/	16b-/LL	f
16C 16CC/	16cc/	.
16D 16DD/	16dd/	.
16E-XJJ 16EE-X/	16ee-X/JJ	.
16FLL 16FF/	16ff\LL	.
16G 16GG/	16gg\	.
16A 16AA/	16aa\	.
16B- 16BB-/	16bb-\	.
16c 16C/	16ccc\	.
16dJJ 16D/	16ddd\JJ	.
!!LO:LB:g=original
=62	=62	=62
!	!LO:MO:mod=!null:null	!
!	!LO:TX:a:i:t=con 8va	!
8e-X 8E-X\	16eee-X\LL	.
.	16fff\	.
[4E- [4EE-X^>/	16ggg\	.
.	16ddd\	.
.	16eee-\	.
.	16bbn\JJ	.
8.E-]L 8.EE-/]	16ccc\LL	<
.	16ff#X\	.
.	16gg\	.
16CL 16CC'/	16eee-\	.
16D 16DD'/	16ddd\	.
16E-JJ 16EE-'/	16ccc\JJ	[
=63	=63	=63
*Xtremolo	*	*
8FL 8FF\	8bb-\L	.
8F 8FF\	8aa\	.
8FJ 8D 8FF\	8bb-\J	.
*tremolo	*	*
!LO:SIC:o=8F 8E 8FF\L:v	!	!
8F 8E- 8FF\L	8ccc\L	.
!LO:SIC:o=8F 8E 8FF\:v	!	!
8F 8E- 8FF\	8ddd\	.
!LO:SIC:o=8F 8E 8FF\J:v	!	!
8F 8E- 8FF\J	8ccc\J	.
*Xtremolo	*	*
=64	=64	=64
8F 8D 8BB-\	4bb-\	.
8B-L 8F 8D 8BB-\	.	.
8B-J 8F 8D 8BB-\	8r	.
*tremolo	*	*
8B- 8F 8D 8BB-\L	16eee-X\LL	sf
.	16ddd\	.
8B- 8F 8D 8BB-\	16ccc\	.
.	16bb-\	.
8B- 8F 8D 8BB-\J	16aa\	.
.	16gg\JJ	.
=65	=65	=65
!LO:SIC:o=8A 8F 8E 8BB-\L:v	!	!
8A 8F 8E- 8BB-\L	8gg/L	.
!LO:SIC:o=8A 8F 8E 8BB-\:v	!	!
8A 8F 8E- 8BB-\	8ff/	.
!LO:SIC:o=8A 8F 8E 8BB-\:v	!	!
8A 8F 8E- 8BB-\	8ff/J	.
!LO:SIC:o=8A 8F 8E 8BB-\:v	!	!
8A 8F 8E- 8BB-\	8ff/L	.
!LO:SIC:o=8A 8F 8E 8BB-\:v	!	!
8A 8F 8E- 8BB-\	8gg/	.
!LO:SIC:o=8A 8F 8E 8BB-\J:v	!	!
8A 8F 8E- 8BB-\J	8ff/J	.
=66	=66	=66
8B- 8F 8D 8BB-\L	4ff/	.
8B- 8F 8D 8BB-\	.	.
8B- 8F 8D 8BB-\	8r	.
8B- 8F 8D 8BB-\	16eee-X\LL	sf
.	16ddd\	.
8B- 8F 8D 8BB-\	16ccc\	.
.	16bb-\	.
8B- 8F 8D 8BB-\J	16aa\	.
.	16gg\JJ	.
=67	=67	=67
!LO:SIC:o=8A 8F 8E 8BB-\L:v	!	!
8A 8F 8E- 8BB-\L	8gg/L	.
!LO:SIC:o=8A 8F 8E 8BB-\:v	!	!
8A 8F 8E- 8BB-\	8ff/	.
!LO:SIC:o=8A 8F 8E 8BB-\:v	!	!
8A 8F 8E- 8BB-\	8ff/J	.
!LO:SIC:o=8A 8F 8E 8BB-\:v	!	!
8A 8F 8E- 8BB-\	8ff/L	.
!LO:SIC:o=8A 8F 8E 8BB-\:v	!	!
8A 8F 8E- 8BB-\	8gg/	.
!LO:SIC:o=8A 8F 8E 8BB-\J:v	!	!
8A 8F 8E- 8BB-\J	8ff/J	.
=68	=68	=68
8B- 8F 8D 8BB-\L	4ff/	.
8B- 8F 8D 8BB-\	.	.
8B- 8F 8D 8BB-\J	8r	.
!	!LO:SIC:o=16eee\LL:v	!
4B- 4F 4D 4BB-\	16eee-\LL	.
.	16ddd\	.
.	16ccc\	.
.	16bb-\	.
8r	16aa\	.
.	16gg\JJ	.
*Xtremolo	*	*
=69	=69	=69
8DD/	8gg/L	.
8cL 8A 8D\	8ff#X/	sf
8cJ 8A 8D\	8ff#/J	.
*tremolo	*	*
8c 8A 8D\L	8dd/L	.
8c 8A 8D\	8een/	.
8c 8A 8D\J	8ff#X/J	.
*Xtremolo	*	*
!!LO:LB:g=original
=70	=70	=70
!	!LO:MO:mod=!null:null	!
!	!LO:TX:a:i:t=con 8va	!
8GG/	8.gg\L	<
8dL 8B- 8G\	.	.
.	16aa\L	.
8dJ 8B- 8G\	16bb-\	.
.	16ccc\JJ	.
8BB-/	16ddd\LL	.
.	16eee\	.
8dL 8B- 8G\	16fff\	.
.	16ggg\	.
8dJ 8B- 8G\	16aaa\	.
.	16ggg\JJ	[[
=71	=71	=71
*tremolo	*	*
8c 8A 8C\L	8fff\L	.
8c 8A 8C\	8eee\	.
8c 8A 8C\J	8fff\J	.
8c 8B- 8C\L	8ggg\L	.
8c 8B- 8C\	8aaa\	.
8c 8B- 8C\J	8ggg\J	.
=72	=72	=72
8c 8A 8F\L	4fff\	.
8c 8A 8F\	.	.
8c 8A 8F\J	8r	.
8e-X 8c 8F\L	8ff/L	p
8e-X 8c 8F\	8gg/	.
8e-X 8c 8F\J	8aa/J	.
=73	=73	=73
8d 8B- 8F\L	8bb-\L	.
8d 8B- 8F\	8aa\	.
8d 8B- 8F\J	8bb-\J	.
8en 8c 8B- 8G 8F\L	8ddd\L	.
8en 8c 8B- 8G 8F\	8ccc\	.
8en 8c 8B- 8G 8F\J	8bb-\J	.
=74	=74	=74
8f 8c 8A 8F\L	4.aa/	.
8f 8c 8A 8F\	.	.
8f 8c 8A 8F\J	.	.
8e-X 8c 8F\L	8ff/L	.
8e-X 8c 8F\	8gg/	.
8e-X 8c 8F\J	8aa/J	.
=75	=75	=75
8d 8B- 8F\L	8bb-\L	.
8d 8B- 8F\	8aa\	.
8d 8B- 8F\J	8bb-\J	.
8en 8c 8B- 8F\L	8ccc\L	.
8en 8c 8B- 8F\	8ddd\	.
8en 8c 8B- 8F\J	8ccc\J	.
*Xtremolo	*	*
=76	=76	=76
8fL 8c 8A 8F\	[4.ccc\	.
8f 8c 8A 8F\	.	.
8e-XJ 8c 8A 8F\	.	.
*tremolo	*	*
!	!LO:MO:mod=!LO&colon;TX&colon;b&colon;i&colon;t=stiracito	!
!	!null	!
8d 8c 8A 8F#X\L	8ccc\L]	.
!	!LO:MO:mod=!null:null	!
!	!LO:TX:a:t=problem:extended text	!LO:HP:t=[]stiracito]:ext=[cd]
!	!LO:MO:mod=!null:null	!
!	!LO:TX:b:i:t=stiracito	!
8d 8c 8A 8F#X\	8ddd\	.
8d 8c 8A 8F#X\J	[8ccc\J	.
=77	=77	=77
8d 8c 8G\L	8ccc\L]	.
8d 8c 8G\	8ddd\	.
8d 8c 8G\J	8ccc\J	.
8d 8Bn 8G\L	8bbn\L	.
8d 8Bn 8G\	8ggg\	.
8d 8Bn 8G\J	8ggg\J	.
!!LO:LB:g=original
=78	=78	=78
!	!LO:MO:mod=!null:null	!
!	!LO:TX:a:i:t=con 8va	!
8e 8c\L	8ggg^\L	.
8e 8c\	8ccc\	.
8e 8c\J	8bb-X\J	.
!	!LO:MO:mod=!null:null	!
!	!LO:TX:b:t=to	!
8e-X 8c 8F\L	8aa\L	.
8e-X 8c 8F\	8fff\	.
8e-X 8c 8F\J	8fff\J	.
=79	=79	=79
8d 8B-\L	8fff^\L	.
8d 8B-\	8bb-\	.
8d 8B-\J	8aa\J	.
8en 8c 8B-\L	8gg\L	.
8en 8c 8B-\	8ddd^\	.
8en 8c 8B-\J	8ccc\J	.
=80	=80	=80
8f 8c 8A\L	8aa\L	.
8f 8c 8A\	8ddd^\	.
8f 8c 8A\J	8ccc\J	.
8e 8B- 8G 8C#X\L	8bbb-^\L	.
8e 8B- 8G 8C#X\	8aaa\	.
8e 8B- 8G 8C#X\J	8ggg\J	.
=81	=81	=81
8d 8A 8F 8D\L	4aaa^\	.
8d 8A 8F 8D\	.	.
8d 8A 8F 8D\J	8fff\	.
8d 8G 8F 8BB-\L	8.ggg^\L	.
8d 8G 8F 8BB-\	.	.
.	16fff\L	.
8d 8G 8F 8BB-\J	16eee\	.
.	16ddd\JJ	.
=82	=82	=82
8c 8A 8F 8C\L	4ddd\	.
8c 8A 8F 8C\	.	.
8c 8A 8F 8C\J	8ccc\	.
8c 8B- 8C\L	8.ddd^\L	.
8c 8B- 8C\	.	.
.	16ccc\L	.
8c 8B- 8C\J	16bb-\	.
.	16gg\JJ	.
=83	=83	=83
8c 8A 8F\L	4ff/	.
8c 8A 8F\	.	.
8c 8A 8F\J	8r	.
8e 8d-X 8B- 8F\L	16ee\LL	.
.	16gg\	.
8e 8d-X 8B- 8F\	16bb-\	sf
.	16ddd-X\	.
8e 8d-X 8B- 8F\J	16eee\	.
.	16bbb-\JJ	.
!!LO:LB:g=original
=84	=84	=84
!	!LO:MO:mod=!null:null	!
!	!LO:TX:a:i:t=con 8va	!
8f 8c 8A 8F\L	4aaa\	.
8f 8c 8A 8F\	.	.
8f 8c 8A 8F\J	8r	.
8e 8c 8B- 8G\L	8ggg\L	p
8e 8c 8B- 8G\	8aaa\	.
8e 8c 8B- 8G\J	8ggg\J	.
=85	=85	=85
8f 8c 8A 8F\L	4cccc\	.
8f 8c 8A 8F\	.	.
8f 8c 8A 8F\J	8r	.
8e 8d-X 8B- 8F\L	16gg\LL	.
.	16bb-\	.
8e 8d-X 8B- 8F\	16ddd-X\	sf
.	16eee\	.
8e 8d-X 8B- 8F\J	16ggg\	.
.	16dddd-X\JJ	.
=86	=86	=86
8f 8c 8A 8F\L	4cccc\	.
8f 8c 8A 8F\	.	.
8f 8c 8A 8F\J	8r	.
8e 8c 8B- 8F\L	8ggg\L	p
8e 8c 8B- 8F\	8aaa\	.
8e 8c 8B- 8F\J	8ggg\J	.
*Xtremolo	*	*
=87	=87	=87
16fLL 16F\	16fff\LL	ff
16e 16E\	16eee\	.
16d 16D\	16ddd\	.
16c 16C\	16ccc\	.
16B- 16BB-\	16bb-\	.
16AJJ 16AA\	16aa\JJ	.
16GLL 16GG\	16gg/LL	.
16F 16FF\	16ff/	.
16E 16EE\	16ee/	.
16D 16DD\	16dd/	.
16C 16CC\	16cc/	.
16BB-JJ 16BBB-\	16b-/JJ	.
=88	=88	=88
16AALL 16AAA\	16a/LL	.
16BB- 16BBB-\	16b-/	.
16C 16CC\	16cc/	.
16D 16DD\	16dd/	.
16E 16EE\	16ee/	.
16FJJ 16FF\	16ff/JJ	.
16GLL 16GG\	16gg/LL	.
16A 16AA\	16aa/	.
16B- 16BB-\	16bb-/	.
16c 16C\	16ccc/	.
16d 16D\	16ddd/	.
16eJJ 16E\	16eee/JJ	.
=89	=89	=89
4f 4F\	8fff\	.
*	*X8va	*
.	8r	.
8cL 8C\	8ccL 8b- 8e^>/	p
8AJ 8F\	8ccJ 8a 8f/	.
8r	8r	.
8C 8CC\	[8c< 8B-< 8E</	pp
=90	=90	=90
2.AA 2.FF;</	2.c<] 2.A< 2.F<;/	.
==	==	==
*-	*-	*-
!!!system-decoration: {(s1,s2)}
!!!RDF**kern: >= above
!!!RDF**kern: <= below
!!!filter-modern: sic -sq | shed -e "s/LO:DY:(a|b|rj)/LO:dy:$1/L" | shed -e "s/TX(.*):t=P:/tx$1:t=P:/LG" | modori -m | autostem -r | shed -k -e "s/([^a-gA-Gn#X-])[<>]/$1/g"
!!!ENC: Anna Matuszewska
!!!END: 2020-07-22
!!!EED: Anna Matuszewska
!!!EEV: 2020-07-22
!!!EED-modern: Antoni Szymański
!!!END-modern: 2022-09-11
